Newaita-dark/apps/64/preferences-desktop-notification-bell.svg

<svg height="64" viewBox="0 0 64 64" width="64" xmlns="http://www.w3.org/2000/svg" xmlns:xlink="http://www.w3.org/1999/xlink"><linearGradient id="a"><stop offset="0" stop-opacity=".313726"/><stop offset=".222222" stop-opacity=".27451"/><stop offset="1" stop-opacity="0"/></linearGradient><radialGradient id="b" cx="450.908936" cy="189.579361" gradientTransform="matrix(.00000035 -.156265 -.281277 -.0000002 85.077172 127.190661)" gradientUnits="userSpaceOnUse" r="21.166656" xlink:href="#a"/><radialGradient id="c" cx="450.908936" cy="189.579361" gradientTransform="matrix(-.00000035 .156265 .281277 .0000002 -21.57111 -15.054962)" gradientUnits="userSpaceOnUse" r="21.166656" xlink:href="#a"/><radialGradient id="d" cx="450.908936" cy="189.579361" gradientTransform="matrix(-.00000035 -.156265 .281277 -.0000002 -21.57111 127.190661)" gradientUnits="userSpaceOnUse" r="21.166656" xlink:href="#a"/><radialGradient id="e" cx="450.908936" cy="189.579361" gradientTransform="matrix(.00000035 .156265 -.281277 .0000002 85.077168 -15.054963)" gradientUnits="userSpaceOnUse" r="21.166656" xlink:href="#a"/><linearGradient id="f" gradientTransform="matrix(.0267201 0 0 .0998973 24.930763 33.273418)" gradientUnits="userSpaceOnUse" x1="255.322968" x2="255.323044" y1="228.178589" y2="254.666656"><stop offset="0" stop-opacity=".27451"/><stop offset="1" stop-opacity="0"/></linearGradient><linearGradient id="g"><stop offset="0" stop-color="#ffa726"/><stop offset="1" stop-color="#ffb74d"/></linearGradient><linearGradient id="h" gradientUnits="userSpaceOnUse" x1="34.39913399987" x2="34.39913399987" xlink:href="#g" y1="50.77569400006" y2="56.067868"/><linearGradient id="i" gradientUnits="userSpaceOnUse" x1="30.43000500006" x2="30.43000500006" xlink:href="#g" y1="13.73046999994" y2="5.79221000013"/><linearGradient id="j" gradientUnits="userSpaceOnUse" x1="31.753056" x2="31.753056" xlink:href="#g" y1="56.06789790428" y2="5.792224912"/><path d="m32.414062 56.066406h5.292969v-2.644531h-5.292969zm0 0" fill="url(#b)"/><path d="m31.089844 56.066406h-5.289063v2.648438h5.289063zm0 0" fill="url(#c)"/><path d="m31.089844 56.066406h-5.289063v-2.644531h5.289063zm0 0" fill="url(#d)"/><path d="m32.414062 56.066406h5.292969v2.648438h-5.292969zm0 0" fill="url(#e)"/><path d="m31.089844 56.070312h1.324218v2.644532h-1.324218zm0 0" fill="url(#f)"/><path d="m31.753906 45.484375c2.921875 0 5.292969 2.367187 5.292969 5.292969 0 2.921875-2.371094 5.289062-5.292969 5.289062s-5.292968-2.367187-5.292968-5.289062c0-2.925782 2.371093-5.292969 5.292968-5.292969zm0 0" fill="url(#h)"/><path d="m26.484375 50.28125c-.015625.160156-.023437.328125-.023437.496094 0 2.929687 2.359374 5.289062 5.292968 5.289062 2.929688 0 5.292969-2.359375 5.292969-5.289062 0-.167969-.007813-.335938-.023437-.496094-.25 2.695312-2.507813 4.792969-5.269532 4.792969-2.765625 0-5.019531-2.097657-5.269531-4.792969zm0 0" fill-opacity=".235294"/><path d="m254.006994 148.840255c23.372768 0 42.339706 18.935692 42.339706 42.339707 0 23.372768-18.966938 42.308459-42.339706 42.308459s-42.339707-18.935691-42.339707-42.308459c0-23.404015 18.966939-42.339707 42.339707-42.339707zm0 0" fill="none" stroke="#212121" stroke-linecap="round" stroke-linejoin="round" stroke-width="3" transform="matrix(.125012 0 0 .125012 0 26.877566)"/><path d="m31.753906 5.792969c1.460938 0 2.644532 1.183593 2.644532 2.644531v2.648438c0 1.460937-1.183594 2.644531-2.644532 2.644531-1.460937 0-2.648437-1.183594-2.648437-2.644531v-2.648438c0-1.460938 1.1875-2.644531 2.648437-2.644531zm0 0" fill="url(#i)"/><path d="m31.753906 5.792969c-1.46875 0-2.648437 1.179687-2.648437 2.644531v.992188c0-1.464844 1.179687-2.644532 2.648437-2.644532 1.464844 0 2.644532 1.179688 2.644532 2.644532v-.992188c0-1.464844-1.179688-2.644531-2.644532-2.644531zm0 0" fill="#fff" fill-opacity=".392157"/><path d="m254.006994-168.660675c11.686384 0 21.154229 9.467846 21.154229 21.15423v21.185477c0 11.686384-9.467845 21.154229-21.154229 21.154229s-21.185477-9.467845-21.185477-21.154229v-21.185477c0-11.686384 9.499093-21.15423 21.185477-21.15423zm0 0" fill="none" stroke="#212121" stroke-linecap="round" stroke-linejoin="round" stroke-width="3" transform="matrix(.125012 0 0 .125012 0 26.877566)"/><path d="m31.753906 8.4375c-8.796875 0-15.878906 7.082031-15.878906 15.878906v15.214844l-4.835938 7.253906c-1.167968 1.75.089844 4.09375 2.191407 4.09375h37.046875c2.101562 0 3.355468-2.34375 2.191406-4.09375l-4.839844-7.253906v-15.214844c0-8.796875-7.082031-15.878906-15.875-15.878906zm0 0" fill="url(#j)"/><path d="m31.753906 8.4375c-8.796875 0-15.878906 7.082031-15.878906 15.878906v.660156c0-8.796874 7.082031-15.875 15.878906-15.875 8.792969 0 15.875 7.078126 15.875 15.875v-.660156c0-8.796875-7.082031-15.878906-15.875-15.878906zm-15.878906 31.09375-4.835938 7.253906c-.375.566406-.5 1.195313-.425781 1.785156.050781-.382812.1875-.765624.425781-1.121093l4.835938-7.257813zm31.753906 0v.660156l4.839844 7.257813c.238281.355469.375.738281.421875 1.121093.078125-.589843-.046875-1.21875-.421875-1.785156zm0 0" fill="#fff" fill-opacity=".392157"/><path d="m10.613281 47.90625c-.191406 1.488281.945313 2.972656 2.617188 2.972656h37.046875c1.671875 0 2.808594-1.484375 2.613281-2.972656-.15625 1.238281-1.191406 2.3125-2.613281 2.3125h-37.046875c-1.421875 0-2.457031-1.074219-2.617188-2.3125zm0 0" fill-opacity=".235294"/><path d="m960.026483 255.093763c-265.958868 0-480.072291 214.113423-480.072291 480.072291v459.995467l-146.206518 219.309777c-35.311591 52.908336 2.716276 123.767715 66.253519 123.767715h1120.05058c63.537243 0 101.44701-70.859379 66.253519-123.767715l-146.324617-219.309777v-459.995467c0-265.958868-214.113423-480.072291-479.954192-480.072291zm0 0" fill="none" stroke="#212121" stroke-linecap="round" stroke-linejoin="round" stroke-width="11.338583" transform="scale(.0330761)"/><path d="m26.472656 51.101562c.011719.226563.039063.445313.078125.660157h10.402344c.039063-.214844.066406-.433594.082031-.660157zm0 0" fill-opacity=".235294"/><path d="m26.855469 13.398438c.949219.550781.832031 2.53125-.265625 4.429687-1.09375 1.898437-2.753906 2.996094-3.703125 2.445313-.949219-.546876-.828125-2.53125.265625-4.429688 1.097656-1.898438 2.753906-2.992188 3.703125-2.445312zm0 0" fill="#fff" fill-opacity=".196078"/></svg>

<?xml version="1.0" encoding="UTF-8"?>
<svg xmlns="http://www.w3.org/2000/svg" xmlns:xlink="http://www.w3.org/1999/xlink" width="64px" height="64px" viewBox="0 0 64 64" version="1.1">
<defs>
<radialGradient id="radial0" gradientUnits="userSpaceOnUse" cx="450.908936" cy="189.579361" fx="450.908936" fy="189.579361" r="21.166656" gradientTransform="matrix(0.000000348341,-0.156265,-0.281277,-0.000000203077,85.077172,127.190661)">
<stop offset="0" style="stop-color:rgb(0%,0%,0%);stop-opacity:0.313726;"/>
<stop offset="0.222222" style="stop-color:rgb(0%,0%,0%);stop-opacity:0.27451;"/>
<stop offset="1" style="stop-color:rgb(0%,0%,0%);stop-opacity:0;"/>
</radialGradient>
<radialGradient id="radial1" gradientUnits="userSpaceOnUse" cx="450.908936" cy="189.579361" fx="450.908936" fy="189.579361" r="21.166656" gradientTransform="matrix(-0.000000348341,0.156265,0.281277,0.000000203077,-21.57111,-15.054962)">
<stop offset="0" style="stop-color:rgb(0%,0%,0%);stop-opacity:0.313726;"/>
<stop offset="0.222222" style="stop-color:rgb(0%,0%,0%);stop-opacity:0.27451;"/>
<stop offset="1" style="stop-color:rgb(0%,0%,0%);stop-opacity:0;"/>
</radialGradient>
<radialGradient id="radial2" gradientUnits="userSpaceOnUse" cx="450.908936" cy="189.579361" fx="450.908936" fy="189.579361" r="21.166656" gradientTransform="matrix(-0.000000348341,-0.156265,0.281277,-0.000000203077,-21.57111,127.190661)">
<stop offset="0" style="stop-color:rgb(0%,0%,0%);stop-opacity:0.313726;"/>
<stop offset="0.222222" style="stop-color:rgb(0%,0%,0%);stop-opacity:0.27451;"/>
<stop offset="1" style="stop-color:rgb(0%,0%,0%);stop-opacity:0;"/>
</radialGradient>
<radialGradient id="radial3" gradientUnits="userSpaceOnUse" cx="450.908936" cy="189.579361" fx="450.908936" fy="189.579361" r="21.166656" gradientTransform="matrix(0.000000348341,0.156265,-0.281277,0.000000203077,85.077168,-15.054963)">
<stop offset="0" style="stop-color:rgb(0%,0%,0%);stop-opacity:0.313726;"/>
<stop offset="0.222222" style="stop-color:rgb(0%,0%,0%);stop-opacity:0.27451;"/>
<stop offset="1" style="stop-color:rgb(0%,0%,0%);stop-opacity:0;"/>
</radialGradient>
<linearGradient id="linear0" gradientUnits="userSpaceOnUse" x1="255.322968" y1="228.178589" x2="255.323044" y2="254.666656" gradientTransform="matrix(0.0267201,0,0,0.0998973,24.930763,33.273418)">
<stop offset="0" style="stop-color:rgb(0%,0%,0%);stop-opacity:0.27451;"/>
<stop offset="1" style="stop-color:rgb(0%,0%,0%);stop-opacity:0;"/>
</linearGradient>
<linearGradient id="linear1" gradientUnits="userSpaceOnUse" x1="275.166656" y1="191.166672" x2="275.166656" y2="233.5" gradientTransform="matrix(0.125012,0,0,0.125012,0,26.877566)">
<stop offset="0" style="stop-color:rgb(100%,65.490198%,14.901961%);stop-opacity:1;"/>
<stop offset="1" style="stop-color:rgb(100%,71.764708%,30.19608%);stop-opacity:1;"/>
</linearGradient>
<linearGradient id="linear2" gradientUnits="userSpaceOnUse" x1="243.416672" y1="-105.166672" x2="243.416672" y2="-168.666656" gradientTransform="matrix(0.125012,0,0,0.125012,0,26.877566)">
<stop offset="0" style="stop-color:rgb(100%,65.490198%,14.901961%);stop-opacity:1;"/>
<stop offset="1" style="stop-color:rgb(100%,71.764708%,30.19608%);stop-opacity:1;"/>
</linearGradient>
<linearGradient id="linear3" gradientUnits="userSpaceOnUse" x1="960" y1="1695.118164" x2="960" y2="175.118134" gradientTransform="matrix(0.0330761,0,0,0.0330761,0,0)">
<stop offset="0" style="stop-color:rgb(100%,65.490198%,14.901961%);stop-opacity:1;"/>
<stop offset="1" style="stop-color:rgb(100%,71.764708%,30.19608%);stop-opacity:1;"/>
</linearGradient>
</defs>
<g id="surface1">
<path style=" stroke:none;fill-rule:nonzero;fill:url(#radial0);" d="M 32.414062 56.066406 L 37.707031 56.066406 L 37.707031 53.421875 L 32.414062 53.421875 Z M 32.414062 56.066406 "/>
<path style=" stroke:none;fill-rule:nonzero;fill:url(#radial1);" d="M 31.089844 56.066406 L 25.800781 56.066406 L 25.800781 58.714844 L 31.089844 58.714844 Z M 31.089844 56.066406 "/>
<path style=" stroke:none;fill-rule:nonzero;fill:url(#radial2);" d="M 31.089844 56.066406 L 25.800781 56.066406 L 25.800781 53.421875 L 31.089844 53.421875 Z M 31.089844 56.066406 "/>
<path style=" stroke:none;fill-rule:nonzero;fill:url(#radial3);" d="M 32.414062 56.066406 L 37.707031 56.066406 L 37.707031 58.714844 L 32.414062 58.714844 Z M 32.414062 56.066406 "/>
<path style=" stroke:none;fill-rule:nonzero;fill:url(#linear0);" d="M 31.089844 56.070312 L 32.414062 56.070312 L 32.414062 58.714844 L 31.089844 58.714844 Z M 31.089844 56.070312 "/>
<path style=" stroke:none;fill-rule:nonzero;fill:url(#linear1);" d="M 31.753906 45.484375 C 34.675781 45.484375 37.046875 47.851562 37.046875 50.777344 C 37.046875 53.699219 34.675781 56.066406 31.753906 56.066406 C 28.832031 56.066406 26.460938 53.699219 26.460938 50.777344 C 26.460938 47.851562 28.832031 45.484375 31.753906 45.484375 Z M 31.753906 45.484375 "/>
<path style=" stroke:none;fill-rule:nonzero;fill:rgb(0%,0%,0%);fill-opacity:0.235294;" d="M 26.484375 50.28125 C 26.46875 50.441406 26.460938 50.609375 26.460938 50.777344 C 26.460938 53.707031 28.820312 56.066406 31.753906 56.066406 C 34.683594 56.066406 37.046875 53.707031 37.046875 50.777344 C 37.046875 50.609375 37.039062 50.441406 37.023438 50.28125 C 36.773438 52.976562 34.515625 55.074219 31.753906 55.074219 C 28.988281 55.074219 26.734375 52.976562 26.484375 50.28125 Z M 26.484375 50.28125 "/>
<path style="fill:none;stroke-width:3;stroke-linecap:round;stroke-linejoin:round;stroke:rgb(12.941177%,12.941177%,12.941177%);stroke-opacity:1;stroke-miterlimit:4;" d="M 254.006994 148.840255 C 277.379762 148.840255 296.3467 167.775947 296.3467 191.179962 C 296.3467 214.55273 277.379762 233.488421 254.006994 233.488421 C 230.634226 233.488421 211.667287 214.55273 211.667287 191.179962 C 211.667287 167.775947 230.634226 148.840255 254.006994 148.840255 Z M 254.006994 148.840255 " transform="matrix(0.125012,0,0,0.125012,0,26.877566)"/>
<path style=" stroke:none;fill-rule:nonzero;fill:url(#linear2);" d="M 31.753906 5.792969 C 33.214844 5.792969 34.398438 6.976562 34.398438 8.4375 L 34.398438 11.085938 C 34.398438 12.546875 33.214844 13.730469 31.753906 13.730469 C 30.292969 13.730469 29.105469 12.546875 29.105469 11.085938 L 29.105469 8.4375 C 29.105469 6.976562 30.292969 5.792969 31.753906 5.792969 Z M 31.753906 5.792969 "/>
<path style=" stroke:none;fill-rule:nonzero;fill:rgb(100%,100%,100%);fill-opacity:0.392157;" d="M 31.753906 5.792969 C 30.285156 5.792969 29.105469 6.972656 29.105469 8.4375 L 29.105469 9.429688 C 29.105469 7.964844 30.285156 6.785156 31.753906 6.785156 C 33.21875 6.785156 34.398438 7.964844 34.398438 9.429688 L 34.398438 8.4375 C 34.398438 6.972656 33.21875 5.792969 31.753906 5.792969 Z M 31.753906 5.792969 "/>
<path style="fill:none;stroke-width:3;stroke-linecap:round;stroke-linejoin:round;stroke:rgb(12.941177%,12.941177%,12.941177%);stroke-opacity:1;stroke-miterlimit:4;" d="M 254.006994 -168.660675 C 265.693378 -168.660675 275.161223 -159.192829 275.161223 -147.506445 L 275.161223 -126.320968 C 275.161223 -114.634584 265.693378 -105.166739 254.006994 -105.166739 C 242.32061 -105.166739 232.821517 -114.634584 232.821517 -126.320968 L 232.821517 -147.506445 C 232.821517 -159.192829 242.32061 -168.660675 254.006994 -168.660675 Z M 254.006994 -168.660675 " transform="matrix(0.125012,0,0,0.125012,0,26.877566)"/>
<path style=" stroke:none;fill-rule:nonzero;fill:url(#linear3);" d="M 31.753906 8.4375 C 22.957031 8.4375 15.875 15.519531 15.875 24.316406 L 15.875 39.53125 L 11.039062 46.785156 C 9.871094 48.535156 11.128906 50.878906 13.230469 50.878906 L 50.277344 50.878906 C 52.378906 50.878906 53.632812 48.535156 52.46875 46.785156 L 47.628906 39.53125 L 47.628906 24.316406 C 47.628906 15.519531 40.546875 8.4375 31.753906 8.4375 Z M 31.753906 8.4375 "/>
<path style=" stroke:none;fill-rule:nonzero;fill:rgb(100%,100%,100%);fill-opacity:0.392157;" d="M 31.753906 8.4375 C 22.957031 8.4375 15.875 15.519531 15.875 24.316406 L 15.875 24.976562 C 15.875 16.179688 22.957031 9.101562 31.753906 9.101562 C 40.546875 9.101562 47.628906 16.179688 47.628906 24.976562 L 47.628906 24.316406 C 47.628906 15.519531 40.546875 8.4375 31.753906 8.4375 Z M 15.875 39.53125 L 11.039062 46.785156 C 10.664062 47.351562 10.539062 47.980469 10.613281 48.570312 C 10.664062 48.1875 10.800781 47.804688 11.039062 47.449219 L 15.875 40.191406 Z M 47.628906 39.53125 L 47.628906 40.191406 L 52.46875 47.449219 C 52.707031 47.804688 52.84375 48.1875 52.890625 48.570312 C 52.96875 47.980469 52.84375 47.351562 52.46875 46.785156 Z M 47.628906 39.53125 "/>
<path style=" stroke:none;fill-rule:nonzero;fill:rgb(0%,0%,0%);fill-opacity:0.235294;" d="M 10.613281 47.90625 C 10.421875 49.394531 11.558594 50.878906 13.230469 50.878906 L 50.277344 50.878906 C 51.949219 50.878906 53.085938 49.394531 52.890625 47.90625 C 52.734375 49.144531 51.699219 50.21875 50.277344 50.21875 L 13.230469 50.21875 C 11.808594 50.21875 10.773438 49.144531 10.613281 47.90625 Z M 10.613281 47.90625 "/>
<path style="fill:none;stroke-width:11.338583;stroke-linecap:round;stroke-linejoin:round;stroke:rgb(12.941177%,12.941177%,12.941177%);stroke-opacity:1;stroke-miterlimit:4;" d="M 960.026483 255.093763 C 694.067615 255.093763 479.954192 469.207186 479.954192 735.166054 L 479.954192 1195.161521 L 333.747674 1414.471298 C 298.436083 1467.379634 336.46395 1538.239013 400.001193 1538.239013 L 1520.051773 1538.239013 C 1583.589016 1538.239013 1621.498783 1467.379634 1586.305292 1414.471298 L 1439.980675 1195.161521 L 1439.980675 735.166054 C 1439.980675 469.207186 1225.867252 255.093763 960.026483 255.093763 Z M 960.026483 255.093763 " transform="matrix(0.0330761,0,0,0.0330761,0,0)"/>
<path style=" stroke:none;fill-rule:nonzero;fill:rgb(0%,0%,0%);fill-opacity:0.235294;" d="M 26.472656 51.101562 C 26.484375 51.328125 26.511719 51.546875 26.550781 51.761719 L 36.953125 51.761719 C 36.992188 51.546875 37.019531 51.328125 37.035156 51.101562 Z M 26.472656 51.101562 "/>
<path style=" stroke:none;fill-rule:nonzero;fill:rgb(100%,100%,100%);fill-opacity:0.196078;" d="M 26.855469 13.398438 C 27.804688 13.949219 27.6875 15.929688 26.589844 17.828125 C 25.496094 19.726562 23.835938 20.824219 22.886719 20.273438 C 21.9375 19.726562 22.058594 17.742188 23.152344 15.84375 C 24.25 13.945312 25.90625 12.851562 26.855469 13.398438 Z M 26.855469 13.398438 "/>
</g>
</svg>
